X:093 
T:Junior's Mouse* 
F:file ID: cre.5/093jun_m
M:6/8
%%Q:160
R:jig
N:This is a minor-key version of "Mouse in the Cupboard" that Breathnach got from 
Junior Crehan (hence my title). I've appended a version in A minor which might be 
better suited to most traditional instruments.
K:Gm
G/A/|BAG AGF|DGG FGA|BAB cBc|d3 fdc|
B2G AGF|DGG FGA|~B3 cAF|AGG G2:|
D|~B3 cBc|~d3 fdc|dgg gfg|gag fdc|
~B3 cBc|~d3 fdc|BAB cAF|AGG G2A|
BAB ~c3|~d3 fdc|dgg gfg|gag fga|
bag agf| gfd fdc|BAB cAF|AGG G3|]

%%%

